X:285
T: Tadhg a Ruin
S: "Ag Deanamh Ceoil" (CCE)
Z: B.Black
L: 1/8
M: 4/4
R: reel
K: G
GE|DEGA B2 GA|c2 Ac B2 GE|DEGA BDge|1 dBAB G2 :|2\
dBAB G4||
Bddd cded|dedB AB G2|Bddd edge|dBAB G3 z|
BddB c4|(3BcB GB ABGE|DEGA Bdge|dBAB G4||
